X: 48
M: C
L: 1/8
K: D
|:\
(uDF)AF dFAF | G","y/BAF GEkE2 | (uDF)AF dFAF | G","y/BAG FDkD2 :|
ud2","y/ef gef(ud | fg)af gfec | vd2","y/(ef) gef(d | AB)AG FDD2 |
ud2","y/ef gef(ud | fg)af gfec | vd2(ef) kaef(d | AB)AG FDD2 |]
o' Perth".  What wye he cam ta Shetland we niver ken bit da fiddlers
fan oot it he could be turned in til a Shetland Reel an so dye \"osed
him fir dat.

fashion ta dance laek dem.  Idder eens said dey wir awful fashie
so maybe dere's a bit o' afftak  ida name o' him.  Sometimes whin
hoo da lasses st\"od ida doors o' da hooses aye lippinin to see da
boats comin sailin in trow da voe.  Efter dat naebody in dat district
hed da hert to dance an onewye maist a what wis left moved awa an noo
da hooses aa stand empty.


